; generated by PrusaSlicer 2.3.1+win64 on 2021-06-09 at 12:10:42 UTC


;
;

;
;
; 

; external perimeters extrusion width = 0.45mm
; perimeters extrusion width = 0.45mm
; infill extrusion width = 0.45mm
; solid infill extrusion width = 0.45mm
; top infill extrusion width = 0.40mm
; support material extrusion width = 0.35mm
; first layer extrusion width = 0.42mm

M73 P0 R19
M201 X1250 Y1250 Z400 E5000 ; sets maximum accelerations, mm/sec^2
M203 X180 Y180 Z12 E80 ; sets maximum feedrates, mm/sec
M204 P1250 R1250 T1250 ; sets acceleration (P, T) and retract acceleration (R), mm/sec^2
M205 X8.00 Y8.00 Z2.00 E10.00 ; sets the jerk limits, mm/sec
M205 S0 T0 ; sets the minimum extruding and travel feed rate, mm/sec
M107
;TYPE:Custom
G90 ; use absolute coordinates
M83 ; extruder relative mode
M104 S170 ; set extruder temp for bed leveling
M140 S80 ; set bed temp
M109 R170 ; wait for bed leveling temp
M190 S80 ; wait for bed temp
G28 ; home all without mesh bed level
G29 ; mesh bed leveling 
M104 S215 ; set extruder temp
G92 E0.0
G1 Y-2.0 X179 F2400
G1 Z3 F720
M109 S215 ; wait for extruder temp

; intro line
G1 X170 F1000
G1 Z0.2 F720
G1 X110.0 E8.0 F900
G1 X40.0 E10.0 F700
G92 E0.0

M221 S95 ; set flow
G21 ; set units to millimeters
G90 ; use absolute coordinates
M83 ; use relative distances for extrusion
M900 K0.2 ; Filament gcode LA 1.5
; ; Filament gcode LA 1.0
;LAYER_CHANGE
;Z:0.2
;HEIGHT:0.2
;BEFORE_LAYER_CHANGE
G92 E0.0
;0.2


M73 P1 R19
G1 E-3.20000 F4200.000
G1 Z0.200 F9000.000
;AFTER_LAYER_CHANGE
;0.2
G1 Z0.400
G1 X67.504 Y71.650
G1 Z0.200
G1 E3.20000 F2400.000
M204 S800
;TYPE:Skirt
;WIDTH:0.42
G1 F1200.000
G1 X113.235 Y71.654 E1.43386
G1 X113.678 Y71.751 E0.01423
G1 X114.126 Y71.959 E0.01548
G1 X114.816 Y72.584 E0.02920
G1 X115.128 Y73.072 E0.01818
G1 X115.318 Y73.741 E0.02179
G1 X115.318 Y96.461 E0.71237
G1 X115.130 Y97.125 E0.02162
G1 X114.945 Y97.458 E0.01196
G1 X114.381 Y98.054 E0.02573
G1 X114.110 Y98.256 E0.01059
G1 X113.230 Y98.552 E0.02912
G1 X67.507 Y98.552 E1.43361
G1 X66.843 Y98.364 E0.02162
G1 X66.510 Y98.179 E0.01196
G1 X65.914 Y97.615 E0.02573
G1 X65.712 Y97.344 E0.01059
G1 X65.416 Y96.464 E0.02912
G1 X65.416 Y73.741 E0.71246
M73 P2 R19
G1 X65.603 Y73.077 E0.02162
G1 X65.788 Y72.744 E0.01196
G1 X66.353 Y72.148 E0.02573
G1 X66.623 Y71.946 E0.01059
G1 X67.447 Y71.669 E0.02724
M204 S1250
G1 X67.535 Y72.027 F9000.000
M204 S800
G1 F1200.000
G1 X113.212 Y72.031 E1.43220
M73 P2 R18
G1 X113.572 Y72.114 E0.01157
G1 X113.938 Y72.286 E0.01268
G1 X114.543 Y72.844 E0.02580
G1 X114.775 Y73.206 E0.01347
G1 X114.941 Y73.769 E0.01841
G1 X114.941 Y96.433 E0.71061
G1 X114.775 Y96.995 E0.01838
G1 X114.630 Y97.250 E0.00919
G1 X114.121 Y97.780 E0.02305
G1 X113.911 Y97.935 E0.00819
G1 X113.199 Y98.175 E0.02355
G1 X67.535 Y98.175 E1.43177
G1 X66.973 Y98.009 E0.01838
G1 X66.718 Y97.864 E0.00919
G1 X66.188 Y97.355 E0.02305
G1 X66.033 Y97.145 E0.00819
G1 X65.793 Y96.433 E0.02355
G1 X65.793 Y73.769 E0.71062
G1 X65.958 Y73.207 E0.01838
G1 X66.103 Y72.952 E0.00919
G1 X66.613 Y72.422 E0.02305
G1 X66.823 Y72.267 E0.00819
G1 X67.478 Y72.046 E0.02167
M204 S1250
G1 X67.020 Y72.589 F9000.000
M204 S800
G1 F1200.000
G1 X67.566 Y72.404 E0.01806
G1 X113.191 Y72.408 E1.43054
G1 X113.429 Y72.463 E0.00767
G1 X113.749 Y72.614 E0.01109
G1 X114.267 Y73.102 E0.02233
G1 X114.423 Y73.343 E0.00898
G1 X114.564 Y73.799 E0.01495
G1 X114.564 Y96.403 E0.70876
M73 P3 R18
G1 X114.423 Y96.860 E0.01500
G1 X114.318 Y97.037 E0.00643
G1 X113.863 Y97.504 E0.02044
G1 X113.713 Y97.613 E0.00580
G1 X113.168 Y97.798 E0.01806
G1 X67.564 Y97.798 E1.42986
G1 X67.107 Y97.657 E0.01500
G1 X66.931 Y97.552 E0.00643
G1 X66.464 Y97.097 E0.02044
G1 X66.355 Y96.947 E0.00580
G1 X66.170 Y96.402 E0.01806
G1 X66.170 Y73.799 E0.70872
G1 X66.311 Y73.342 E0.01500
G1 X66.415 Y73.165 E0.00643
G1 X66.870 Y72.698 E0.02044
G1 X66.972 Y72.625 E0.00392
M204 S1250
G1 X67.215 Y72.913 F9000.000
M204 S800
G1 F1200.000
G1 X67.598 Y72.781 E0.01270
G1 X113.169 Y72.785 E1.42885
G1 X113.286 Y72.812 E0.00377
G1 X113.559 Y72.941 E0.00947
G1 X113.990 Y73.358 E0.01880
G1 X114.073 Y73.486 E0.00479
G1 X114.187 Y73.830 E0.01136
G1 X114.187 Y96.372 E0.70677
G1 X114.073 Y96.718 E0.01144
G1 X114.011 Y96.819 E0.00371
G1 X113.608 Y97.226 E0.01795
G1 X113.519 Y97.289 E0.00343
G1 X113.136 Y97.421 E0.01270
G1 X67.596 Y97.421 E1.42787
G1 X67.250 Y97.307 E0.01144
G1 X67.149 Y97.245 E0.00371
G1 X66.742 Y96.842 E0.01795
G1 X66.679 Y96.753 E0.00343
G1 X66.547 Y96.370 E0.01270
G1 X66.547 Y73.830 E0.70672
M73 P4 R18
G1 X66.661 Y73.484 E0.01144
G1 X66.723 Y73.383 E0.00371
G1 X67.166 Y72.948 E0.01947
M204 S1250
G1 X67.404 Y73.240 F9000.000
M204 S800
G1 F1200.000
G1 X67.631 Y73.158 E0.00757
G1 X113.117 Y73.158 E1.42616
G1 X113.367 Y73.268 E0.00856
G1 X113.710 Y73.611 E0.01522
G1 X113.809 Y73.865 E0.00856
G1 X113.809 Y96.337 E0.70457
G1 X113.728 Y96.564 E0.00757
G1 X113.357 Y96.944 E0.01666
G1 X113.102 Y97.044 E0.00856
G1 X67.631 Y97.044 E1.42572
G1 X67.404 Y96.962 E0.00757
G1 X67.024 Y96.591 E0.01666
G1 X66.924 Y96.337 E0.00856
G1 X66.924 Y73.865 E0.70457
G1 X67.024 Y73.611 E0.00856
G1 X67.357 Y73.277 E0.01480
M204 S1250
G1 X67.604 Y73.564 F9000.000
M204 S800
G1 F1200.000
G1 X67.673 Y73.535 E0.00235
G1 X113.060 Y73.535 E1.42309
G1 X113.130 Y73.564 E0.00235
G1 X113.404 Y73.838 E0.01215
G1 X113.432 Y73.907 E0.00235
G1 X113.432 Y96.295 E0.70194
G1 X113.404 Y96.364 E0.00235
G1 X113.130 Y96.638 E0.01215
G1 X113.060 Y96.667 E0.00235
G1 X67.673 Y96.667 E1.42309
M73 P5 R18
G1 X67.604 Y96.638 E0.00235
G1 X67.330 Y96.364 E0.01215
G1 X67.301 Y96.295 E0.00235
G1 X67.301 Y73.907 E0.70194
G1 X67.330 Y73.838 E0.00235
G1 X67.561 Y73.607 E0.01027
M204 S1250
G1 X67.789 Y73.912 F9000.000
M204 S800
G1 F1200.000
G1 X112.945 Y73.912 E1.41584
G1 X113.055 Y74.023 E0.00490
G1 X113.055 Y96.179 E0.69469
G1 X112.945 Y96.290 E0.00490
G1 X67.789 Y96.290 E1.41584
G1 X67.678 Y96.179 E0.00490
G1 X67.678 Y74.023 E0.69469
G1 X67.746 Y73.955 E0.00302
M204 S1250
; printing object bille_support - Copie.stl id:0 copy 0
G1 E-2.24000 F4200.000
;WIPE_START
G1 F7200.000
G1 X69.392 Y73.953 E-0.91200
;WIPE_END
G1 E-0.04800 F4200.000
G1 Z0.400 F9000.000
G1 X93.383 Y85.934
G1 Z0.200
G1 E3.20000 F2400.000
M204 S800
;TYPE:Support material
G1 F1200.000
G1 X93.383 Y84.888 E0.03279
G1 X93.251 Y84.582 E0.01046
G1 X92.982 Y84.156 E0.01581
G1 X92.629 Y83.756 E0.01671
G1 X92.629 Y85.764 E0.06296
G1 X91.875 Y85.764 E0.02365
G1 X91.875 Y83.220 E0.07978
G1 X91.700 Y83.130 E0.00619
G1 X91.232 Y82.960 E0.01560
G1 X91.121 Y82.937 E0.00356
G1 X91.121 Y85.764 E0.08865
G1 X90.367 Y85.764 E0.02365
G1 X90.367 Y82.849 E0.09142
G1 X90.159 Y82.852 E0.00650
G1 X89.613 Y82.935 E0.01734
G1 X89.613 Y85.764 E0.08872
M73 P6 R18
G1 X88.858 Y85.764 E0.02365
G1 X88.858 Y83.219 E0.07980
G1 X88.737 Y83.278 E0.00423
G1 X88.323 Y83.562 E0.01574
G1 X88.104 Y83.766 E0.00938
G1 X88.104 Y85.764 E0.06265
G1 X87.350 Y85.764 E0.02365
G1 X87.350 Y84.490 E0.03994
M204 S1250
G1 E-2.24000 F4200.000
;WIPE_START
G1 F7200.000
G1 X87.350 Y85.764 E-0.70585
G1 X87.722 Y85.764 E-0.20615
;WIPE_END
G1 E-0.04800 F4200.000
G1 Z0.400 F9000.000
G1 X68.277 Y74.511
G1 Z0.200
G1 E3.20000 F2400.000
M204 S800
;TYPE:External perimeter
G1 F1200.000
G1 X112.457 Y74.511 E1.38523
G1 X112.457 Y95.691 E0.66408
G1 X68.277 Y95.691 E1.38523
G1 X68.277 Y74.571 E0.66220
M204 S1250
G1 X68.672 Y74.570 F9000.000
G1 X68.654 Y74.888
M204 S800
;TYPE:Perimeter
G1 F1200.000
G1 X112.080 Y74.888 E1.36159
G1 X112.080 Y95.314 E0.64044
G1 X68.654 Y95.314 E1.36159
M73 P7 R18
G1 X68.654 Y74.948 E0.63856
M204 S1250
G1 E-2.24000 F4200.000
;WIPE_START
G1 F7200.000
G1 X70.300 Y74.946 E-0.91200
;WIPE_END
G1 E-0.04800 F4200.000
G1 Z0.400 F9000.000
G1 X72.457 Y90.691
G1 Z0.200
G1 E3.20000 F2400.000
M204 S800
;TYPE:External perimeter
G1 F1200.000
G1 X77.277 Y90.691 E0.15113
G1 X77.277 Y93.511 E0.08842
G1 X72.457 Y93.511 E0.15113
G1 X72.457 Y90.751 E0.08654
M204 S1250
G1 X72.321 Y90.315 F9000.000
G1 X72.080 Y90.314
M204 S800
;TYPE:Perimeter
G1 F1200.000
G1 X77.654 Y90.314 E0.17477
G1 X77.654 Y93.888 E0.11207
G1 X72.080 Y93.888 E0.17477
G1 X72.080 Y90.374 E0.11018
M204 S1250
G1 E-2.24000 F4200.000
;WIPE_START
G1 F7200.000
G1 X73.725 Y90.356 E-0.91200
;WIPE_END
G1 E-0.04800 F4200.000
G1 Z0.400 F9000.000
G1 X74.688 Y79.390
G1 Z0.200
G1 E3.20000 F2400.000
M204 S800
;TYPE:External perimeter
M73 P7 R17
G1 F1200.000
G1 X74.280 Y79.175 E0.01446
G1 X73.935 Y78.870 E0.01446
G1 X73.673 Y78.490 E0.01446
G1 X73.509 Y78.059 E0.01446
G1 X73.454 Y77.601 E0.01446
G1 X73.509 Y77.143 E0.01446
G1 X73.673 Y76.712 E0.01446
G1 X73.935 Y76.332 E0.01446
G1 X74.280 Y76.027 E0.01446
G1 X74.688 Y75.812 E0.01446
G1 X75.136 Y75.702 E0.01446
G1 X75.597 Y75.702 E0.01446
G1 X76.045 Y75.812 E0.01446
G1 X76.453 Y76.027 E0.01446
G1 X76.799 Y76.332 E0.01446
G1 X77.061 Y76.712 E0.01446
G1 X77.224 Y77.143 E0.01446
G1 X77.280 Y77.601 E0.01446
G1 X77.224 Y78.059 E0.01446
G1 X77.061 Y78.490 E0.01446
G1 X76.799 Y78.870 E0.01446
G1 X76.453 Y79.175 E0.01446
G1 X76.045 Y79.390 E0.01446
G1 X75.597 Y79.500 E0.01446
G1 X75.136 Y79.500 E0.01446
G1 X74.747 Y79.404 E0.01258
M204 S1250
G1 X74.379 Y79.643 F9000.000
G1 X74.554 Y79.745
M204 S800
;TYPE:Perimeter
G1 F1200.000
G1 X74.064 Y79.488 E0.01733
G1 X73.651 Y79.121 E0.01733
G1 X73.337 Y78.667 E0.01733
G1 X73.141 Y78.150 E0.01733
G1 X73.074 Y77.601 E0.01733
G1 X73.141 Y77.052 E0.01733
G1 X73.337 Y76.535 E0.01733
G1 X73.651 Y76.081 E0.01733
G1 X74.064 Y75.714 E0.01733
G1 X74.554 Y75.457 E0.01733
G1 X75.090 Y75.325 E0.01733
G1 X75.643 Y75.325 E0.01733
G1 X76.180 Y75.457 E0.01733
G1 X76.669 Y75.714 E0.01733
G1 X77.083 Y76.081 E0.01733
G1 X77.397 Y76.535 E0.01733
G1 X77.593 Y77.052 E0.01733
G1 X77.660 Y77.601 E0.01733
G1 X77.593 Y78.150 E0.01733
G1 X77.397 Y78.667 E0.01733
G1 X77.083 Y79.121 E0.01733
G1 X76.669 Y79.488 E0.01733
G1 X76.180 Y79.745 E0.01733
G1 X75.643 Y79.877 E0.01733
G1 X75.090 Y79.877 E0.01733
G1 X74.612 Y79.759 E0.01545
M204 S1250
G1 E-2.24000 F4200.000
;WIPE_START
G1 F7200.000
G1 X74.064 Y79.488 E-0.33869
G1 X73.651 Y79.121 E-0.30632
G1 X73.377 Y78.725 E-0.26699
;WIPE_END
G1 E-0.04800 F4200.000
G1 Z0.400 F9000.000
G1 X103.454 Y77.601
G1 Z0.200
G1 E3.20000 F2400.000
M204 S800
;TYPE:External perimeter
G1 F1200.000
G1 X103.510 Y77.141 E0.01453
G1 X103.695 Y76.680 E0.01557
G1 X103.935 Y76.332 E0.01326
G1 X104.280 Y76.027 E0.01446
G1 X104.688 Y75.812 E0.01446
G1 X105.136 Y75.702 E0.01446
G1 X105.597 Y75.702 E0.01446
G1 X106.045 Y75.812 E0.01446
G1 X106.453 Y76.027 E0.01446
G1 X106.799 Y76.332 E0.01446
G1 X107.062 Y76.714 E0.01453
G1 X107.229 Y77.181 E0.01557
G1 X107.280 Y77.601 E0.01326
G1 X107.224 Y78.059 E0.01446
G1 X107.061 Y78.490 E0.01446
G1 X106.798 Y78.871 E0.01453
G1 X106.419 Y79.193 E0.01557
G1 X106.045 Y79.390 E0.01326
G1 X105.597 Y79.500 E0.01446
G1 X105.136 Y79.500 E0.01446
G1 X104.688 Y79.390 E0.01446
G1 X104.280 Y79.175 E0.01446
G1 X103.935 Y78.870 E0.01446
G1 X103.673 Y78.490 E0.01446
G1 X103.509 Y78.059 E0.01446
G1 X103.461 Y77.661 E0.01258
M204 S1250
G1 X103.107 Y77.401 F9000.000
G1 X103.074 Y77.601
M204 S800
;TYPE:Perimeter
G1 F1200.000
G1 X103.141 Y77.046 E0.01751
G1 X103.360 Y76.501 E0.01844
G1 X103.651 Y76.081 E0.01601
G1 X104.064 Y75.714 E0.01733
G1 X104.554 Y75.457 E0.01733
G1 X105.090 Y75.325 E0.01733
G1 X105.643 Y75.325 E0.01733
G1 X106.180 Y75.457 E0.01733
G1 X106.669 Y75.714 E0.01733
G1 X107.083 Y76.081 E0.01733
G1 X107.400 Y76.540 E0.01751
G1 X107.598 Y77.094 E0.01844
G1 X107.660 Y77.601 E0.01601
G1 X107.593 Y78.150 E0.01733
G1 X107.397 Y78.667 E0.01733
G1 X107.080 Y79.126 E0.01751
G1 X106.632 Y79.508 E0.01844
G1 X106.180 Y79.745 E0.01601
G1 X105.643 Y79.877 E0.01733
G1 X105.090 Y79.877 E0.01733
G1 X104.554 Y79.745 E0.01733
G1 X104.064 Y79.488 E0.01733
G1 X103.651 Y79.121 E0.01733
G1 X103.337 Y78.667 E0.01733
G1 X103.141 Y78.150 E0.01733
G1 X103.081 Y77.661 E0.01545
M204 S1250
G1 E-2.24000 F4200.000
;WIPE_START
G1 F7200.000
G1 X103.141 Y77.046 E-0.34192
G1 X103.360 Y76.501 E-0.32592
G1 X103.611 Y76.138 E-0.24416
;WIPE_END
G1 E-0.04800 F4200.000
G1 Z0.400 F9000.000
G1 X103.457 Y90.691
G1 Z0.200
G1 E3.20000 F2400.000
M204 S800
;TYPE:External perimeter
G1 F1200.000
G1 X108.277 Y90.691 E0.15113
G1 X108.277 Y93.511 E0.08842
G1 X103.457 Y93.511 E0.15113
G1 X103.457 Y90.751 E0.08654
M204 S1250
G1 X103.321 Y90.315 F9000.000
G1 X103.080 Y90.314
M204 S800
;TYPE:Perimeter
G1 F1200.000
G1 X108.654 Y90.314 E0.17477
G1 X108.654 Y93.888 E0.11207
G1 X103.080 Y93.888 E0.17477
G1 X103.080 Y90.374 E0.11018
M204 S1250
G1 E-2.24000 F4200.000
;WIPE_START
G1 F7200.000
G1 X104.725 Y90.356 E-0.91200
;WIPE_END
G1 E-0.04800 F4200.000
G1 Z0.400 F9000.000
G1 X94.307 Y87.329
M73 P8 R17
G1 Z0.200
G1 E3.20000 F2400.000
M204 S800
;TYPE:External perimeter
G1 F1200.000
G1 X94.019 Y88.028 E0.02373
G1 X93.687 Y88.557 E0.01957
G1 X93.181 Y89.121 E0.02376
G1 X92.694 Y89.512 E0.01958
G1 X92.157 Y89.822 E0.01943
G1 X91.575 Y90.049 E0.01958
G1 X90.834 Y90.204 E0.02376
G1 X90.210 Y90.228 E0.01957
G1 X89.460 Y90.127 E0.02373
G1 X88.863 Y89.946 E0.01956
G1 X88.432 Y89.742 E0.01496
G1 X88.301 Y89.677 E0.00459
G1 X87.788 Y89.326 E0.01949
G1 X87.242 Y88.800 E0.02376
G1 X86.871 Y88.299 E0.01954
G1 X86.581 Y87.749 E0.01949
G1 X86.377 Y87.159 E0.01957
G1 X86.249 Y86.413 E0.02376
G1 X86.249 Y85.789 E0.01954
G1 X86.377 Y85.042 E0.02376
G1 X86.581 Y84.453 E0.01957
G1 X86.802 Y84.031 E0.01493
G1 X86.871 Y83.903 E0.00456
G1 X87.242 Y83.402 E0.01954
G1 X87.788 Y82.876 E0.02376
G1 X88.304 Y82.523 E0.01960
G1 X88.991 Y82.210 E0.02370
G1 X89.593 Y82.046 E0.01955
G1 X90.067 Y81.988 E0.01498
G1 X90.214 Y81.974 E0.00463
G1 X90.834 Y81.998 E0.01944
G1 X91.575 Y82.153 E0.02376
G1 X92.157 Y82.380 E0.01959
G1 X92.691 Y82.688 E0.01933
G1 X93.181 Y83.081 E0.01967
G1 X93.602 Y83.540 E0.01953
G1 X94.017 Y84.170 E0.02366
G1 X94.266 Y84.744 E0.01963
G1 X94.449 Y85.480 E0.02376
G1 X94.496 Y86.099 E0.01949
G1 X94.487 Y86.246 E0.00459
G1 X94.449 Y86.721 E0.01496
G1 X94.321 Y87.270 E0.01768
M204 S1250
G1 X94.575 Y87.626 F9000.000
G1 X94.688 Y87.356
M204 S800
;TYPE:Perimeter
G1 F1200.000
G1 X94.668 Y87.444 E0.00284
G1 X94.356 Y88.202 E0.02570
G1 X93.989 Y88.785 E0.02158
G1 X93.441 Y89.396 E0.02573
G1 X92.908 Y89.824 E0.02146
G1 X92.321 Y90.163 E0.02124
G1 X91.683 Y90.411 E0.02146
G1 X90.880 Y90.580 E0.02573
G1 X90.192 Y90.606 E0.02158
G1 X89.379 Y90.497 E0.02570
G1 X88.726 Y90.299 E0.02140
G1 X88.267 Y90.081 E0.01595
G1 X88.109 Y90.002 E0.00552
G1 X87.549 Y89.619 E0.02129
G1 X86.958 Y89.049 E0.02573
G1 X86.552 Y88.502 E0.02138
G1 X86.234 Y87.900 E0.02135
G1 X86.010 Y87.254 E0.02143
G1 X85.872 Y86.445 E0.02573
G1 X85.872 Y85.757 E0.02155
G1 X86.010 Y84.948 E0.02573
G1 X86.234 Y84.302 E0.02143
G1 X86.469 Y83.854 E0.01588
G1 X86.552 Y83.700 E0.00547
G1 X86.958 Y83.152 E0.02138
G1 X87.549 Y82.583 E0.02573
G1 X88.118 Y82.194 E0.02161
G1 X88.863 Y81.854 E0.02567
G1 X89.520 Y81.675 E0.02136
G1 X90.027 Y81.613 E0.01602
G1 X90.204 Y81.597 E0.00557
G1 X90.880 Y81.622 E0.02121
G1 X91.683 Y81.791 E0.02573
G1 X92.321 Y82.039 E0.02146
G1 X92.900 Y82.373 E0.02097
G1 X93.440 Y82.806 E0.02170
G1 X93.900 Y83.307 E0.02133
G1 X94.350 Y83.990 E0.02564
G1 X94.625 Y84.623 E0.02164
G1 X94.822 Y85.419 E0.02573
G1 X94.874 Y86.097 E0.02129
G1 X94.863 Y86.272 E0.00552
G1 X94.823 Y86.779 E0.01595
G1 X94.702 Y87.297 E0.01668
M204 S1250
G1 E-2.24000 F4200.000
;WIPE_START
G1 F7200.000
G1 X94.668 Y87.444 E-0.08343
G1 X94.356 Y88.202 E-0.45422
G1 X93.996 Y88.774 E-0.37435
;WIPE_END
G1 E-0.04800 F4200.000
G1 Z0.400 F9000.000
G1 X104.291 Y75.220
G1 Z0.200
G1 E3.20000 F2400.000
M204 S800
;TYPE:Gap fill
;WIDTH:0.200405
G1 F1200.000
G1 X104.462 Y75.180 E0.00230
G1 X104.861 Y75.131 E0.00526
M204 S1250
M204 S800
;WIDTH:0.103503
G1 X105.068 Y75.106 E0.00105
G1 X105.673 Y75.107 E0.00305
M204 S1250
M204 S800
;WIDTH:0.151955
G1 X105.873 Y75.131 E0.00182
M204 S1250
M204 S800
;WIDTH:0.200406
G1 X106.072 Y75.155 E0.00263
M204 S1250
M204 S800
;WIDTH:0.248857
G1 X106.272 Y75.180 E0.00344
M204 S1250
M204 S800
;WIDTH:0.258193
G1 X106.297 Y75.184 E0.00046
M204 S1250
M204 S800
;WIDTH:0.274365
G1 X106.442 Y75.220 E0.00288
M204 S1250
