; generated by PrusaSlicer 2.3.1+win64 on 2021-06-07 at 10:13:45 UTC


;
;

;
;
; 

; external perimeters extrusion width = 0.40mm
; perimeters extrusion width = 0.40mm
; infill extrusion width = 0.45mm
; solid infill extrusion width = 0.45mm
; top infill extrusion width = 0.40mm
; first layer extrusion width = 0.42mm

M73 P0 R94
M201 X1250 Y1250 Z400 E5000 ; sets maximum accelerations, mm/sec^2
M203 X180 Y180 Z12 E80 ; sets maximum feedrates, mm/sec
M204 P1250 R1250 T1250 ; sets acceleration (P, T) and retract acceleration (R), mm/sec^2
M205 X8.00 Y8.00 Z2.00 E10.00 ; sets the jerk limits, mm/sec
M205 S0 T0 ; sets the minimum extruding and travel feed rate, mm/sec
M107
;TYPE:Custom
G90 ; use absolute coordinates
M83 ; extruder relative mode
M104 S170 ; set extruder temp for bed leveling
M140 S60 ; set bed temp
M109 R170 ; wait for bed leveling temp
M190 S60 ; wait for bed temp
G28 ; home all without mesh bed level
G29 ; mesh bed leveling 
M104 S215 ; set extruder temp
G92 E0.0
G1 Y-2.0 X179 F2400
G1 Z3 F720
M109 S215 ; wait for extruder temp

; intro line
G1 X170 F1000
G1 Z0.2 F720
G1 X110.0 E8.0 F900
G1 X40.0 E10.0 F700
G92 E0.0

M221 S95 ; set flow
G21 ; set units to millimeters
G90 ; use absolute coordinates
M83 ; use relative distances for extrusion
M900 K0.2 ; Filament gcode LA 1.5
; ; Filament gcode LA 1.0
;LAYER_CHANGE
;Z:0.2
;HEIGHT:0.2
;BEFORE_LAYER_CHANGE
G92 E0.0
;0.2


G1 E-3.20000 F4200.000
G1 Z0.200 F9000.000
;AFTER_LAYER_CHANGE
;0.2
G1 Z0.400
G1 X67.207 Y69.481
M73 P0 R93
G1 Z0.200
G1 E3.20000 F2400.000
M204 S800
;TYPE:Skirt
;WIDTH:0.42
G1 F1200.000
G1 X67.553 Y68.910 E0.02095
G1 X68.045 Y68.457 E0.02095
G1 X68.643 Y68.160 E0.02095
G1 X69.300 Y68.040 E0.02095
G1 X104.397 Y68.038 E1.10042
G1 X105.249 Y68.198 E0.02720
G1 X105.988 Y68.653 E0.02720
G1 X106.514 Y69.342 E0.02720
G1 X106.757 Y70.171 E0.02708
G1 X106.743 Y90.768 E0.64582
G1 X106.614 Y91.261 E0.01597
G1 X97.256 Y115.720 E0.82112
G1 X96.724 Y116.594 E0.03208
G1 X96.123 Y117.192 E0.02657
G1 X95.273 Y117.709 E0.03120
G1 X94.252 Y118.002 E0.03330
G1 X84.645 Y118.040 E0.30123
G1 X83.778 Y117.925 E0.02742
G1 X83.149 Y117.714 E0.02079
G1 X82.165 Y117.092 E0.03649
G1 X81.409 Y116.203 E0.03661
G1 X67.136 Y91.162 E0.90373
G1 X67.016 Y90.428 E0.02331
G1 X67.016 Y70.408 E0.62772
G1 X67.195 Y69.540 E0.02778
M204 S1250
; printing object Pilier.obj id:1 copy 0
G1 E-2.24000 F4200.000
;WIPE_START
G1 F7200.000
G1 X67.553 Y68.910 E-0.40176
G1 X68.045 Y68.457 E-0.37028
G1 X68.271 Y68.345 E-0.13996
;WIPE_END
G1 E-0.04800 F4200.000
G1 Z0.400 F9000.000
G1 X93.417 Y113.715
G1 Z0.200
G1 E3.20000 F2400.000
M204 S800
;TYPE:Perimeter
G1 F1200.000
G1 X93.628 Y113.636 E0.00707
G1 X93.856 Y113.651 E0.00714
G1 X94.055 Y113.760 E0.00711
G1 X94.154 Y113.875 E0.00476
G1 X94.233 Y114.087 E0.00711
G1 X94.217 Y114.314 E0.00711
G1 X94.109 Y114.513 E0.00711
G1 X93.993 Y114.613 E0.00479
G1 X93.781 Y114.691 E0.00707
G1 X93.555 Y114.675 E0.00711
G1 X93.357 Y114.567 E0.00707
G1 X93.257 Y114.452 E0.00479
G1 X93.178 Y114.239 E0.00711
G1 X93.178 Y114.087 E0.00476
G1 X93.257 Y113.875 E0.00711
G1 X93.369 Y113.750 E0.00525
M204 S1250
G1 X93.143 Y113.449 F9000.000
M204 S800
G1 F1200.000
G1 X93.327 Y113.334 E0.00679
G1 X93.449 Y113.289 E0.00408
G1 X93.575 Y113.261 E0.00406
G1 X93.835 Y113.261 E0.00815
G1 X94.084 Y113.334 E0.00813
G1 X94.302 Y113.474 E0.00813
G1 X94.394 Y113.566 E0.00408
G1 X94.472 Y113.670 E0.00408
G1 X94.580 Y113.906 E0.00813
G1 X94.617 Y114.163 E0.00813
G1 X94.608 Y114.293 E0.00408
G1 X94.535 Y114.542 E0.00813
G1 X94.472 Y114.656 E0.00408
G1 X94.304 Y114.850 E0.00804
G1 X94.198 Y114.930 E0.00419
G1 X93.962 Y115.038 E0.00811
G1 X93.705 Y115.075 E0.00813
G1 X93.576 Y115.065 E0.00408
G1 X93.327 Y114.992 E0.00813
G1 X93.213 Y114.930 E0.00408
G1 X93.015 Y114.758 E0.00822
G1 X92.876 Y114.542 E0.00804
G1 X92.831 Y114.420 E0.00408
G1 X92.794 Y114.163 E0.00813
G1 X92.803 Y114.034 E0.00408
G1 X92.876 Y113.785 E0.00813
G1 X92.939 Y113.670 E0.00408
G1 X93.097 Y113.486 E0.00760
M204 S1250
G1 X92.861 Y113.189 F9000.000
M204 S800
;TYPE:External perimeter
G1 F1200.000
G1 X93.008 Y113.078 E0.00577
G1 X93.170 Y112.990 E0.00577
G1 X93.342 Y112.926 E0.00577
G1 X93.522 Y112.887 E0.00576
G1 X93.709 Y112.874 E0.00588
G1 X93.889 Y112.887 E0.00566
G1 X94.069 Y112.926 E0.00577
G1 X94.241 Y112.990 E0.00577
G1 X94.403 Y113.078 E0.00577
G1 X94.550 Y113.189 E0.00577
G1 X94.680 Y113.319 E0.00577
G1 X94.790 Y113.466 E0.00577
G1 X94.878 Y113.628 E0.00577
G1 X94.943 Y113.800 E0.00577
G1 X94.982 Y113.980 E0.00577
G1 X94.995 Y114.163 E0.00577
G1 X94.982 Y114.347 E0.00577
G1 X94.943 Y114.527 E0.00577
G1 X94.878 Y114.699 E0.00577
G1 X94.790 Y114.860 E0.00577
G1 X94.680 Y115.008 E0.00577
G1 X94.552 Y115.135 E0.00566
G1 X94.402 Y115.248 E0.00588
G1 X94.241 Y115.336 E0.00576
G1 X94.069 Y115.400 E0.00577
G1 X93.889 Y115.440 E0.00577
G1 X93.705 Y115.453 E0.00577
G1 X93.522 Y115.440 E0.00577
G1 X93.342 Y115.400 E0.00577
G1 X93.170 Y115.336 E0.00577
G1 X93.008 Y115.248 E0.00577
G1 X92.861 Y115.138 E0.00576
G1 X92.729 Y115.005 E0.00588
G1 X92.621 Y114.860 E0.00566
G1 X92.533 Y114.699 E0.00577
G1 X92.468 Y114.527 E0.00577
G1 X92.429 Y114.347 E0.00577
G1 X92.416 Y114.163 E0.00577
G1 X92.429 Y113.980 E0.00577
G1 X92.468 Y113.800 E0.00577
G1 X92.533 Y113.628 E0.00577
G1 X92.621 Y113.466 E0.00577
G1 X92.819 Y113.231 E0.00963
M204 S1250
G1 X93.036 Y113.245 F9000.000
G1 E-2.24000 F4200.000
;WIPE_START
G1 F7200.000
G1 X93.008 Y113.078 E-0.13495
G1 X93.170 Y112.990 E-0.10195
G1 X93.342 Y112.926 E-0.10196
G1 X93.522 Y112.887 E-0.10182
G1 X93.709 Y112.874 E-0.10391
G1 X93.889 Y112.887 E-0.10011
G1 X94.069 Y112.926 E-0.10195
G1 X94.241 Y112.990 E-0.10196
G1 X94.342 Y113.045 E-0.06339
;WIPE_END
G1 E-0.04800 F4200.000
G1 Z0.400 F9000.000
G1 X94.107 Y114.255
G1 Z0.200
G1 E3.20000 F2400.000
M204 S800
;TYPE:Solid infill
;WIDTH:0.479564
G1 F1200.000
G1 X93.792 Y113.941 E0.01614
G1 X93.740 Y113.922 E0.00202
G1 X93.637 Y113.929 E0.00377
G1 X93.546 Y113.979 E0.00377
G1 X93.463 Y114.118 E0.00587
G1 X93.471 Y114.232 E0.00416
G1 X93.798 Y114.564 E0.01691
M204 S1250
G1 E-2.24000 F4200.000
;WIPE_START
G1 F7200.000
G1 X93.471 Y114.232 E-0.25813
G1 X93.463 Y114.118 E-0.06342
G1 X93.546 Y113.979 E-0.08966
G1 X93.637 Y113.929 E-0.05748
G1 X93.740 Y113.922 E-0.05748
G1 X93.792 Y113.941 E-0.03084
G1 X94.107 Y114.255 E-0.24631
;WIPE_END
G1 E-0.15669 F4200.000
G1 Z0.400 F9000.000
G1 X85.239 Y114.163
G1 Z0.200
G1 E3.20000 F2400.000
M204 S800
;TYPE:Perimeter
;WIDTH:0.42
G1 F1200.000
G1 X85.217 Y114.314 E0.00476
G1 X85.109 Y114.513 E0.00711
G1 X84.927 Y114.648 E0.00711
G1 X84.705 Y114.697 E0.00711
G1 X84.484 Y114.648 E0.00711
G1 X84.304 Y114.514 E0.00703
G1 X84.221 Y114.386 E0.00480
G1 X84.172 Y114.163 E0.00714
G1 X84.220 Y113.942 E0.00711
G1 X84.356 Y113.760 E0.00711
G1 X84.555 Y113.651 E0.00711
G1 X84.708 Y113.630 E0.00483
G1 X84.927 Y113.678 E0.00703
G1 X85.055 Y113.760 E0.00476
G1 X85.191 Y113.942 E0.00711
G1 X85.235 Y114.103 E0.00525
M204 S1250
G1 X85.611 Y114.077 F9000.000
M204 S800
G1 F1200.000
G1 X85.608 Y114.293 E0.00679
G1 X85.580 Y114.420 E0.00408
G1 X85.472 Y114.656 E0.00813
G1 X85.394 Y114.760 E0.00408
G1 X85.198 Y114.930 E0.00815
G1 X84.962 Y115.038 E0.00811
G1 X84.835 Y115.065 E0.00408
G1 X84.705 Y115.075 E0.00408
G1 X84.449 Y115.038 E0.00813
G1 X84.327 Y114.992 E0.00408
G1 X84.109 Y114.852 E0.00813
G1 X83.938 Y114.655 E0.00815
G1 X83.877 Y114.542 E0.00403
G1 X83.803 Y114.293 E0.00815
G1 X83.794 Y114.163 E0.00408
G1 X83.831 Y113.906 E0.00813
G1 X83.939 Y113.670 E0.00813
G1 X84.017 Y113.566 E0.00408
G1 X84.213 Y113.397 E0.00813
G1 X84.327 Y113.334 E0.00408
G1 X84.575 Y113.261 E0.00811
G1 X84.835 Y113.261 E0.00815
G1 X84.962 Y113.289 E0.00408
G1 X85.198 Y113.397 E0.00813
G1 X85.394 Y113.566 E0.00813
G1 X85.472 Y113.670 E0.00408
G1 X85.535 Y113.785 E0.00408
G1 X85.604 Y114.017 E0.00760
M204 S1250
G1 X85.982 Y113.980 F9000.000
M204 S800
;TYPE:External perimeter
G1 F1200.000
G1 X85.995 Y114.163 E0.00577
G1 X85.982 Y114.347 E0.00577
G1 X85.943 Y114.527 E0.00577
G1 X85.878 Y114.699 E0.00577
G1 X85.790 Y114.860 E0.00577
G1 X85.680 Y115.008 E0.00577
G1 X85.552 Y115.135 E0.00566
G1 X85.402 Y115.248 E0.00588
G1 X85.241 Y115.336 E0.00576
G1 X85.069 Y115.400 E0.00577
G1 X84.889 Y115.440 E0.00577
G1 X84.705 Y115.453 E0.00577
G1 X84.522 Y115.440 E0.00577
G1 X84.342 Y115.400 E0.00577
G1 X84.170 Y115.336 E0.00577
G1 X84.008 Y115.248 E0.00577
G1 X83.861 Y115.138 E0.00577
G1 X83.733 Y115.010 E0.00566
G1 X83.621 Y114.860 E0.00588
G1 X83.533 Y114.699 E0.00575
G1 X83.468 Y114.523 E0.00588
G1 X83.429 Y114.347 E0.00566
G1 X83.416 Y114.163 E0.00577
G1 X83.429 Y113.980 E0.00577
G1 X83.468 Y113.800 E0.00577
G1 X83.533 Y113.628 E0.00577
G1 X83.621 Y113.466 E0.00577
G1 X83.731 Y113.319 E0.00577
G1 X83.861 Y113.189 E0.00577
G1 X84.008 Y113.078 E0.00577
G1 X84.170 Y112.990 E0.00577
G1 X84.342 Y112.926 E0.00577
G1 X84.522 Y112.887 E0.00576
G1 X84.709 Y112.874 E0.00588
G1 X84.889 Y112.887 E0.00566
G1 X85.069 Y112.926 E0.00577
G1 X85.241 Y112.990 E0.00577
G1 X85.403 Y113.078 E0.00577
G1 X85.550 Y113.189 E0.00577
G1 X85.680 Y113.319 E0.00577
G1 X85.790 Y113.466 E0.00577
G1 X85.878 Y113.628 E0.00577
G1 X85.969 Y113.921 E0.00963
M204 S1250
G1 X85.840 Y114.097 F9000.000
G1 X84.615 Y113.761
M204 S800
;TYPE:Solid infill
;WIDTH:0.474774
G1 F1200.000
G1 X84.940 Y114.095 E0.01672
G1 X84.947 Y114.198 E0.00372
G1 X84.911 Y114.295 E0.00372
G1 X84.837 Y114.369 E0.00376
G1 X84.730 Y114.408 E0.00407
G1 X84.635 Y114.392 E0.00347
G1 X84.307 Y114.063 E0.01666
M204 S1250
G1 E-2.24000 F4200.000
;WIPE_START
G1 F7200.000
G1 X84.635 Y114.392 E-0.25716
G1 X84.730 Y114.408 E-0.05356
G1 X84.837 Y114.369 E-0.06279
G1 X84.911 Y114.295 E-0.05802
G1 X84.947 Y114.198 E-0.05737
G1 X84.940 Y114.095 E-0.05748
G1 X84.615 Y113.761 E-0.25803
;WIPE_END
G1 E-0.15560 F4200.000
G1 Z0.400 F9000.000
G1 X83.993 Y101.876
G1 Z0.200
G1 E3.20000 F2400.000
M204 S800
;TYPE:Perimeter
;WIDTH:0.42
G1 F1200.000
G1 X83.993 Y101.450 E0.01335
G1 X86.418 Y101.450 E0.07606
G1 X86.418 Y101.876 E0.01335
G1 X84.053 Y101.876 E0.07418
M204 S1250
G1 X83.615 Y102.253 F9000.000
M204 S800
;TYPE:External perimeter
G1 F1200.000
G1 X83.615 Y101.073 E0.03700
G1 X86.795 Y101.073 E0.09971
G1 X86.795 Y102.253 E0.03700
G1 X83.675 Y102.253 E0.09783
M204 S1250
G1 X83.773 Y101.886 F9000.000
G1 E-2.24000 F4200.000
;WIPE_START
G1 F7200.000
G1 X83.615 Y101.073 E-0.65476
G1 X84.080 Y101.073 E-0.25724
;WIPE_END
G1 E-0.04800 F4200.000
G1 Z0.400 F9000.000
G1 X91.993 Y101.876
G1 Z0.200
G1 E3.20000 F2400.000
M204 S800
;TYPE:Perimeter
G1 F1200.000
G1 X91.993 Y101.450 E0.01335
G1 X94.418 Y101.450 E0.07606
G1 X94.418 Y101.876 E0.01335
G1 X92.053 Y101.876 E0.07418
M204 S1250
G1 X91.615 Y102.253 F9000.000
M204 S800
;TYPE:External perimeter
G1 F1200.000
G1 X91.615 Y101.073 E0.03700
G1 X94.795 Y101.073 E0.09971
G1 X94.795 Y102.253 E0.03700
G1 X91.675 Y102.253 E0.09783
M204 S1250
G1 X91.773 Y101.886 F9000.000
; stop printing object Pilier.obj id:1 copy 0
; printing object Base.obj id:0 copy 0
G1 E-2.24000 F4200.000
;WIPE_START
G1 F7200.000
G1 X91.615 Y101.073 E-0.65476
G1 X92.080 Y101.073 E-0.25724
;WIPE_END
G1 E-0.04800 F4200.000
G1 Z0.400 F9000.000
G1 X97.606 Y88.202
G1 Z0.200
G1 E3.20000 F2400.000
M204 S800
;TYPE:Perimeter
G1 F1200.000
G1 X97.606 Y84.628 E0.11207
G1 X103.180 Y84.628 E0.17477
G1 X103.180 Y88.202 E0.11207
G1 X97.666 Y88.202 E0.17289
M204 S1250
G1 X97.983 Y87.825 F9000.000
M204 S800
;TYPE:External perimeter
G1 F1200.000
G1 X97.983 Y85.005 E0.08842
G1 X102.803 Y85.005 E0.15113
G1 X102.803 Y87.825 E0.08842
G1 X98.043 Y87.825 E0.14925
M204 S1250
G1 X97.589 Y87.896 F9000.000
G1 E-2.24000 F4200.000
;WIPE_START
G1 F7200.000
G1 X98.008 Y86.180 E-0.91200
;WIPE_END
G1 E-0.04800 F4200.000
G1 Z0.400 F9000.000
G1 X99.622 Y76.192
G1 Z0.200
G1 E3.20000 F2400.000
M204 S800
;TYPE:Perimeter
G1 F1200.000
G1 X99.088 Y76.062 E0.01722
G1 X98.567 Y75.784 E0.01852
G1 X98.162 Y75.417 E0.01715
G1 X97.856 Y74.966 E0.01709
G1 X97.665 Y74.455 E0.01708
G1 X97.604 Y73.954 E0.01583
G1 X97.677 Y73.337 E0.01950
G1 X97.857 Y72.864 E0.01585
G1 X98.163 Y72.412 E0.01713
G1 X98.605 Y72.020 E0.01852
G1 X99.092 Y71.768 E0.01719
G1 X99.622 Y71.639 E0.01709
G1 X100.164 Y71.639 E0.01699
G1 X100.697 Y71.769 E0.01722
G1 X101.218 Y72.047 E0.01852
G1 X101.624 Y72.414 E0.01715
G1 X101.930 Y72.865 E0.01709
G1 X102.120 Y73.375 E0.01708
G1 X102.181 Y73.876 E0.01583
G1 X102.108 Y74.494 E0.01950
G1 X101.929 Y74.967 E0.01585
G1 X101.622 Y75.419 E0.01713
G1 X101.180 Y75.811 E0.01852
G1 X100.693 Y76.063 E0.01719
G1 X100.164 Y76.192 E0.01709
G1 X99.682 Y76.192 E0.01511
M204 S1250
G1 X99.682 Y75.815 F9000.000
M204 S800
;TYPE:External perimeter
G1 F1200.000
G1 X99.224 Y75.707 E0.01476
G1 X98.786 Y75.473 E0.01556
G1 X98.449 Y75.167 E0.01427
G1 X98.193 Y74.791 E0.01425
G1 X98.034 Y74.365 E0.01425
G1 X97.984 Y73.954 E0.01300
G1 X98.046 Y73.427 E0.01663
G1 X98.194 Y73.039 E0.01301
G1 X98.449 Y72.663 E0.01427
G1 X98.820 Y72.333 E0.01556
G1 X99.225 Y72.124 E0.01429
G1 X99.667 Y72.016 E0.01426
G1 X100.119 Y72.016 E0.01416
G1 X100.562 Y72.124 E0.01430
G1 X101.000 Y72.358 E0.01556
G1 X101.337 Y72.663 E0.01427
G1 X101.592 Y73.040 E0.01425
G1 X101.751 Y73.465 E0.01425
G1 X101.801 Y73.877 E0.01300
G1 X101.739 Y74.404 E0.01663
G1 X101.592 Y74.792 E0.01301
G1 X101.336 Y75.168 E0.01427
G1 X100.965 Y75.498 E0.01556
G1 X100.560 Y75.707 E0.01429
G1 X100.119 Y75.815 E0.01426
G1 X99.742 Y75.815 E0.01181
M204 S1250
G1 X99.444 Y76.136 F9000.000
G1 E-2.24000 F4200.000
;WIPE_START
G1 F7200.000
G1 X99.224 Y75.707 E-0.29326
G1 X98.786 Y75.473 E-0.27504
G1 X98.449 Y75.167 E-0.25227
G1 X98.356 Y75.031 E-0.09143
;WIPE_END
G1 E-0.04800 F4200.000
G1 Z0.400 F9000.000
G1 X76.183 Y73.885
G1 Z0.200
G1 E3.20000 F2400.000
M204 S800
;TYPE:Perimeter
G1 F1200.000
G1 X76.116 Y74.472 E0.01854
G1 X75.929 Y74.967 E0.01659
G1 X75.609 Y75.435 E0.01778
G1 X75.164 Y75.819 E0.01842
G1 X74.721 Y76.052 E0.01569
G1 X74.177 Y76.190 E0.01761
G1 X73.612 Y76.190 E0.01772
G1 X73.095 Y76.064 E0.01666
G1 X72.572 Y75.787 E0.01855
G1 X72.173 Y75.431 E0.01677
G1 X71.857 Y74.967 E0.01761
G1 X71.671 Y74.477 E0.01643
G1 X71.603 Y73.946 E0.01678
G1 X71.669 Y73.359 E0.01854
G1 X71.857 Y72.864 E0.01659
G1 X72.175 Y72.398 E0.01767
G1 X72.598 Y72.025 E0.01771
G1 X73.067 Y71.778 E0.01662
G1 X73.642 Y71.639 E0.01855
G1 X74.175 Y71.641 E0.01672
G1 X74.690 Y71.767 E0.01661
G1 X75.213 Y72.043 E0.01855
G1 X75.612 Y72.400 E0.01677
G1 X75.928 Y72.864 E0.01761
G1 X76.114 Y73.354 E0.01643
G1 X76.175 Y73.825 E0.01490
M204 S1250
G1 X75.801 Y73.873 F9000.000
M204 S800
;TYPE:External perimeter
G1 F1200.000
G1 X75.747 Y74.383 E0.01607
G1 X75.592 Y74.792 E0.01370
G1 X75.325 Y75.182 E0.01482
G1 X74.951 Y75.505 E0.01552
G1 X74.585 Y75.697 E0.01294
G1 X74.129 Y75.813 E0.01474
G1 X73.657 Y75.813 E0.01481
G1 X73.230 Y75.708 E0.01377
G1 X72.789 Y75.475 E0.01564
G1 X72.459 Y75.180 E0.01388
G1 X72.194 Y74.792 E0.01476
G1 X72.039 Y74.385 E0.01364
G1 X71.983 Y73.943 E0.01396
G1 X72.039 Y73.448 E0.01563
G1 X72.194 Y73.039 E0.01371
G1 X72.459 Y72.650 E0.01478
G1 X72.814 Y72.337 E0.01481
G1 X73.201 Y72.133 E0.01374
G1 X73.686 Y72.016 E0.01564
G1 X74.129 Y72.018 E0.01388
G1 X74.555 Y72.122 E0.01376
G1 X74.996 Y72.355 E0.01564
G1 X75.326 Y72.650 E0.01388
G1 X75.592 Y73.039 E0.01476
G1 X75.746 Y73.446 E0.01364
G1 X75.793 Y73.814 E0.01163
M204 S1250
G1 X76.150 Y74.069 F9000.000
G1 E-2.24000 F4200.000
;WIPE_START
G1 F7200.000
G1 X75.747 Y74.383 E-0.31638
G1 X75.592 Y74.792 E-0.24222
G1 X75.325 Y75.182 E-0.26197
G1 X75.200 Y75.290 E-0.09142
;WIPE_END
G1 E-0.04800 F4200.000
G1 Z0.400 F9000.000
G1 X97.229 Y84.251
G1 Z0.200
G1 E3.20000 F2400.000
M204 S800
;TYPE:Perimeter
G1 F1200.000
G1 X97.229 Y88.580 E0.13571
G1 X103.229 Y88.580 E0.18813
G1 X103.229 Y89.251 E0.02106
G1 X70.557 Y89.251 E1.02440
G1 X70.557 Y88.580 E0.02106
G1 X76.557 Y88.580 E0.18813
G1 X76.557 Y84.251 E0.13571
G1 X70.557 Y84.251 E0.18813
G1 X70.557 Y71.580 E0.39731
G1 X72.634 Y71.580 E0.06512
G1 X72.382 Y71.712 E0.00891
G1 X71.890 Y72.147 E0.02061
G1 X71.520 Y72.688 E0.02055
G1 X71.300 Y73.269 E0.01948
