; generated by PrusaSlicer 2.3.1+win64 on 2021-06-07 at 09:09:29 UTC


;
;

;
;
; 

; external perimeters extrusion width = 0.40mm
; perimeters extrusion width = 0.40mm
; infill extrusion width = 0.45mm
; solid infill extrusion width = 0.45mm
; top infill extrusion width = 0.40mm
; first layer extrusion width = 0.42mm

M73 P0 R83
M201 X1250 Y1250 Z400 E5000 ; sets maximum accelerations, mm/sec^2
M203 X180 Y180 Z12 E80 ; sets maximum feedrates, mm/sec
M204 P1250 R1250 T1250 ; sets acceleration (P, T) and retract acceleration (R), mm/sec^2
M205 X8.00 Y8.00 Z2.00 E10.00 ; sets the jerk limits, mm/sec
M205 S0 T0 ; sets the minimum extruding and travel feed rate, mm/sec
M107
;TYPE:Custom
G90 ; use absolute coordinates
M83 ; extruder relative mode
M104 S170 ; set extruder temp for bed leveling
M140 S60 ; set bed temp
M109 R170 ; wait for bed leveling temp
M190 S60 ; wait for bed temp
G28 ; home all without mesh bed level
G29 ; mesh bed leveling 
M104 S215 ; set extruder temp
G92 E0.0
G1 Y-2.0 X179 F2400
G1 Z3 F720
M109 S215 ; wait for extruder temp

; intro line
G1 X170 F1000
G1 Z0.2 F720
G1 X110.0 E8.0 F900
G1 X40.0 E10.0 F700
G92 E0.0

M221 S95 ; set flow
G21 ; set units to millimeters
G90 ; use absolute coordinates
M83 ; use relative distances for extrusion
M900 K0.2 ; Filament gcode LA 1.5
; ; Filament gcode LA 1.0
;LAYER_CHANGE
;Z:0.2
;HEIGHT:0.2
;BEFORE_LAYER_CHANGE
G92 E0.0
;0.2


G1 E-3.20000 F4200.000
G1 Z0.200 F9000.000
;AFTER_LAYER_CHANGE
;0.2
G1 Z0.400
G1 X71.704 Y77.365
G1 Z0.200
G1 E3.20000 F2400.000
M204 S800
;TYPE:Skirt
;WIDTH:0.42
G1 F1200.000
G1 X72.471 Y77.246 E0.02434
G1 X107.509 Y77.246 E1.09858
G1 X108.526 Y77.442 E0.03246
G1 X109.395 Y77.997 E0.03233
G1 X110.001 Y78.836 E0.03246
G1 X110.254 Y79.835 E0.03233
G1 X110.255 Y100.152 E0.63700
G1 X110.144 Y100.788 E0.02026
G1 X109.888 Y101.382 E0.02026
G1 X109.500 Y101.899 E0.02026
G1 X109.006 Y102.309 E0.02014
G1 X108.306 Y102.635 E0.02422
G1 X107.539 Y102.754 E0.02434
G1 X72.448 Y102.754 E1.10025
G1 X71.788 Y102.659 E0.02090
G1 X71.166 Y102.407 E0.02103
G1 X70.627 Y102.015 E0.02090
G1 X70.196 Y101.501 E0.02103
G1 X69.873 Y100.813 E0.02383
G1 X69.751 Y100.058 E0.02396
G1 X69.752 Y79.906 E0.63186
G1 X69.854 Y79.255 E0.02065
G1 X70.106 Y78.647 E0.02065
G1 X70.496 Y78.116 E0.02065
G1 X71.004 Y77.691 E0.02078
G1 X71.650 Y77.390 E0.02234
M204 S1250
G1 X71.806 Y77.731 F9000.000
M204 S800
G1 F1200.000
G1 X72.481 Y77.623 E0.02144
G1 X107.509 Y77.623 E1.09827
G1 X108.390 Y77.794 E0.02813
G1 X109.145 Y78.279 E0.02813
G1 X109.664 Y79.006 E0.02802
G1 X109.879 Y79.877 E0.02813
G1 X109.879 Y100.118 E0.63464
G1 X109.784 Y100.676 E0.01775
G1 X109.561 Y101.193 E0.01763
G1 X109.224 Y101.642 E0.01763
G1 X108.786 Y102.002 E0.01775
G1 X108.182 Y102.279 E0.02083
G1 X107.529 Y102.377 E0.02071
G1 X72.459 Y102.377 E1.09958
G1 X71.880 Y102.293 E0.01835
G1 X71.342 Y102.073 E0.01823
G1 X70.874 Y101.729 E0.01823
G1 X70.503 Y101.281 E0.01823
G1 X70.230 Y100.688 E0.02048
G1 X70.128 Y100.043 E0.02048
G1 X70.129 Y79.928 E0.63070
G1 X70.217 Y79.357 E0.01811
G1 X70.437 Y78.827 E0.01799
G1 X70.779 Y78.366 E0.01799
G1 X71.224 Y77.998 E0.01811
G1 X71.751 Y77.756 E0.01820
M204 S1250
; printing object modelisation support bille avc plaque.obj id:0 copy 0
G1 E-2.24000 F4200.000
;WIPE_START
G1 F7200.000
G1 X72.481 Y77.623 E-0.41105
G1 X73.385 Y77.623 E-0.50095
;WIPE_END
G1 E-0.04800 F4200.000
G1 Z0.400 F9000.000
G1 X73.669 Y81.164
G1 Z0.200
G1 E3.20000 F2400.000
M204 S800
;TYPE:Perimeter
G1 F1200.000
G1 X106.341 Y81.164 E1.02440
G1 X106.341 Y98.836 E0.55408
G1 X73.669 Y98.836 E1.02440
G1 X73.669 Y81.224 E0.55220
M204 S1250
G1 X73.292 Y80.787 F9000.000
M204 S800
G1 F1200.000
G1 X106.718 Y80.787 E1.04804
G1 X106.718 Y99.213 E0.57773
G1 X73.292 Y99.213 E1.04804
G1 X73.292 Y80.847 E0.57585
M204 S1250
G1 X72.915 Y80.410 F9000.000
M204 S800
;TYPE:External perimeter
G1 F1200.000
G1 X107.095 Y80.410 E1.07169
G1 X107.095 Y99.590 E0.60138
G1 X72.915 Y99.590 E1.07169
G1 X72.915 Y80.470 E0.59949
M204 S1250
G1 X73.309 Y80.478 F9000.000
G1 E-2.24000 F4200.000
;WIPE_START
G1 F7200.000
G1 X74.561 Y80.467 E-0.91200
;WIPE_END
G1 E-0.04800 F4200.000
G1 Z0.400 F9000.000
G1 X105.459 Y81.277
G1 Z0.200
G1 E3.20000 F2400.000
M204 S800
;TYPE:Solid infill
;WIDTH:0.422828
G1 F1200.000
G1 X106.058 Y81.876 E0.02674
G1 X106.058 Y82.413 E0.01697
G1 X105.092 Y81.447 E0.04316
G1 X104.555 Y81.447 E0.01697
G1 X106.058 Y82.950 E0.06717
G1 X106.058 Y83.488 E0.01697
G1 X104.017 Y81.447 E0.09117
G1 X103.480 Y81.447 E0.01697
G1 X106.058 Y84.025 E0.11517
G1 X106.058 Y84.562 E0.01697
G1 X102.943 Y81.447 E0.13917
G1 X102.406 Y81.447 E0.01697
G1 X106.058 Y85.099 E0.16317
G1 X106.058 Y85.637 E0.01697
G1 X101.868 Y81.447 E0.18718
G1 X101.331 Y81.447 E0.01697
G1 X106.058 Y86.174 E0.21118
G1 X106.058 Y86.711 E0.01697
G1 X100.794 Y81.447 E0.23518
G1 X100.256 Y81.447 E0.01697
G1 X106.058 Y87.249 E0.25918
G1 X106.058 Y87.786 E0.01697
G1 X99.719 Y81.447 E0.28318
G1 X99.182 Y81.447 E0.01697
G1 X106.058 Y88.323 E0.30719
G1 X106.058 Y88.860 E0.01697
G1 X98.645 Y81.447 E0.33119
M73 P1 R83
G1 X98.107 Y81.447 E0.01697
G1 X106.058 Y89.398 E0.35519
G1 X106.058 Y89.935 E0.01697
G1 X97.570 Y81.447 E0.37919
M73 P1 R82
G1 X97.033 Y81.447 E0.01697
G1 X106.058 Y90.472 E0.40320
G1 X106.058 Y91.009 E0.01697
G1 X96.496 Y81.447 E0.42720
G1 X95.958 Y81.447 E0.01697
G1 X106.058 Y91.547 E0.45120
G1 X106.058 Y92.084 E0.01697
G1 X95.421 Y81.447 E0.47520
G1 X94.884 Y81.447 E0.01697
G1 X106.058 Y92.621 E0.49920
G1 X106.058 Y93.159 E0.01697
G1 X94.346 Y81.447 E0.52321
G1 X93.809 Y81.447 E0.01697
G1 X106.058 Y93.696 E0.54721
G1 X106.058 Y94.233 E0.01697
G1 X93.272 Y81.447 E0.57121
G1 X92.735 Y81.447 E0.01697
G1 X106.058 Y94.770 E0.59521
G1 X106.058 Y95.308 E0.01697
G1 X92.197 Y81.447 E0.61922
G1 X91.660 Y81.447 E0.01697
G1 X106.058 Y95.845 E0.64322
G1 X106.058 Y96.382 E0.01697
G1 X91.123 Y81.447 E0.66722
G1 X90.586 Y81.447 E0.01697
G1 X106.058 Y96.919 E0.69122
G1 X106.058 Y97.457 E0.01697
G1 X90.048 Y81.447 E0.71522
G1 X89.511 Y81.447 E0.01697
G1 X106.058 Y97.994 E0.73923
G1 X106.058 Y98.531 E0.01697
G1 X88.974 Y81.447 E0.76323
G1 X88.436 Y81.447 E0.01697
G1 X105.543 Y98.553 E0.76420
G1 X105.005 Y98.553 E0.01697
G1 X87.899 Y81.447 E0.76420
G1 X87.362 Y81.447 E0.01697
G1 X104.468 Y98.553 E0.76420
G1 X103.931 Y98.553 E0.01697
G1 X86.825 Y81.447 E0.76420
G1 X86.287 Y81.447 E0.01697
G1 X103.393 Y98.553 E0.76420
G1 X102.856 Y98.553 E0.01697
G1 X85.750 Y81.447 E0.76420
G1 X85.213 Y81.447 E0.01697
G1 X102.319 Y98.553 E0.76420
G1 X101.782 Y98.553 E0.01697
G1 X84.676 Y81.447 E0.76420
G1 X84.138 Y81.447 E0.01697
G1 X101.244 Y98.553 E0.76420
G1 X100.707 Y98.553 E0.01697
G1 X83.601 Y81.447 E0.76420
G1 X83.064 Y81.447 E0.01697
G1 X100.170 Y98.553 E0.76420
G1 X99.633 Y98.553 E0.01697
G1 X82.526 Y81.447 E0.76420
G1 X81.989 Y81.447 E0.01697
G1 X99.095 Y98.553 E0.76420
G1 X98.558 Y98.553 E0.01697
G1 X81.452 Y81.447 E0.76420
G1 X80.915 Y81.447 E0.01697
G1 X98.021 Y98.553 E0.76420
G1 X97.483 Y98.553 E0.01697
G1 X80.377 Y81.447 E0.76420
G1 X79.840 Y81.447 E0.01697
G1 X96.946 Y98.553 E0.76420
G1 X96.409 Y98.553 E0.01697
G1 X79.303 Y81.447 E0.76420
G1 X78.766 Y81.447 E0.01697
G1 X95.872 Y98.553 E0.76420
G1 X95.334 Y98.553 E0.01697
G1 X78.228 Y81.447 E0.76420
G1 X77.691 Y81.447 E0.01697
G1 X94.797 Y98.553 E0.76420
G1 X94.260 Y98.553 E0.01697
G1 X77.154 Y81.447 E0.76420
G1 X76.617 Y81.447 E0.01697
G1 X93.723 Y98.553 E0.76420
G1 X93.185 Y98.553 E0.01697
G1 X76.079 Y81.447 E0.76420
G1 X75.542 Y81.447 E0.01697
G1 X92.648 Y98.553 E0.76420
G1 X92.111 Y98.553 E0.01697
G1 X75.005 Y81.447 E0.76420
G1 X74.467 Y81.447 E0.01697
G1 X91.574 Y98.553 E0.76420
M73 P2 R82
G1 X91.036 Y98.553 E0.01697
G1 X73.952 Y81.469 E0.76323
G1 X73.952 Y82.006 E0.01697
G1 X90.499 Y98.553 E0.73923
G1 X89.962 Y98.553 E0.01697
G1 X73.952 Y82.543 E0.71522
G1 X73.952 Y83.081 E0.01697
G1 X89.424 Y98.553 E0.69122
G1 X88.887 Y98.553 E0.01697
G1 X73.952 Y83.618 E0.66722
G1 X73.952 Y84.155 E0.01697
G1 X88.350 Y98.553 E0.64322
G1 X87.813 Y98.553 E0.01697
G1 X73.952 Y84.692 E0.61921
G1 X73.952 Y85.230 E0.01697
G1 X87.275 Y98.553 E0.59521
G1 X86.738 Y98.553 E0.01697
G1 X73.952 Y85.767 E0.57121
G1 X73.952 Y86.304 E0.01697
G1 X86.201 Y98.553 E0.54721
M73 P2 R81
G1 X85.664 Y98.553 E0.01697
G1 X73.952 Y86.841 E0.52321
G1 X73.952 Y87.379 E0.01697
G1 X85.126 Y98.553 E0.49920
G1 X84.589 Y98.553 E0.01697
G1 X73.952 Y87.916 E0.47520
G1 X73.952 Y88.453 E0.01697
G1 X84.052 Y98.553 E0.45120
G1 X83.514 Y98.553 E0.01697
G1 X73.952 Y88.991 E0.42720
G1 X73.952 Y89.528 E0.01697
G1 X82.977 Y98.553 E0.40319
G1 X82.440 Y98.553 E0.01697
G1 X73.952 Y90.065 E0.37919
G1 X73.952 Y90.602 E0.01697
G1 X81.903 Y98.553 E0.35519
G1 X81.365 Y98.553 E0.01697
G1 X73.952 Y91.140 E0.33119
G1 X73.952 Y91.677 E0.01697
G1 X80.828 Y98.553 E0.30719
G1 X80.291 Y98.553 E0.01697
G1 X73.952 Y92.214 E0.28318
G1 X73.952 Y92.751 E0.01697
G1 X79.754 Y98.553 E0.25918
G1 X79.216 Y98.553 E0.01697
G1 X73.952 Y93.289 E0.23518
G1 X73.952 Y93.826 E0.01697
G1 X78.679 Y98.553 E0.21118
G1 X78.142 Y98.553 E0.01697
G1 X73.952 Y94.363 E0.18718
G1 X73.952 Y94.901 E0.01697
G1 X77.604 Y98.553 E0.16317
G1 X77.067 Y98.553 E0.01697
G1 X73.952 Y95.438 E0.13917
G1 X73.952 Y95.975 E0.01697
G1 X76.530 Y98.553 E0.11517
G1 X75.993 Y98.553 E0.01697
G1 X73.952 Y96.512 E0.09117
G1 X73.952 Y97.050 E0.01697
G1 X75.455 Y98.553 E0.06716
G1 X74.918 Y98.553 E0.01697
G1 X73.952 Y97.587 E0.04316
G1 X73.952 Y98.124 E0.01697
G1 X74.551 Y98.723 E0.02674
M204 S1250
; stop printing object modelisation support bille avc plaque.obj id:0 copy 0
M106 S84.15
;LAYER_CHANGE
;Z:0.25
;HEIGHT:0.05
;BEFORE_LAYER_CHANGE
G92 E0.0
;0.25


G1 E-2.24000 F4200.000
;WIPE_START
G1 F7200.000
G1 X73.952 Y98.124 E-0.46910
G1 X73.952 Y97.587 E-0.29774
G1 X74.137 Y97.772 E-0.14516
;WIPE_END
G1 E-0.04800 F4200.000
G1 Z0.400 F9000.000
;AFTER_LAYER_CHANGE
;0.25
G1 X69.873 Y100.813
G1 Z0.250
G1 E3.20000 F2400.000
;TYPE:Skirt
;WIDTH:0.42
G1 F1800.000
G1 X69.751 Y100.058 E0.00650
G1 X69.752 Y79.906 E0.17145
G1 X69.854 Y79.255 E0.00560
G1 X70.106 Y78.647 E0.00560
G1 X70.496 Y78.116 E0.00560
G1 X71.004 Y77.691 E0.00564
G1 X71.704 Y77.365 E0.00657
G1 X72.471 Y77.246 E0.00661
G1 X107.509 Y77.246 E0.29809
G1 X108.526 Y77.442 E0.00881
G1 X109.395 Y77.997 E0.00877
G1 X110.001 Y78.836 E0.00881
G1 X110.254 Y79.835 E0.00877
G1 X110.255 Y100.152 E0.17285
G1 X110.144 Y100.788 E0.00550
G1 X109.888 Y101.382 E0.00550
G1 X109.500 Y101.899 E0.00550
G1 X109.006 Y102.309 E0.00546
G1 X108.306 Y102.635 E0.00657
G1 X107.539 Y102.754 E0.00661
G1 X72.448 Y102.754 E0.29854
G1 X71.788 Y102.659 E0.00567
G1 X71.166 Y102.407 E0.00571
G1 X70.627 Y102.015 E0.00567
G1 X70.196 Y101.501 E0.00571
G1 X69.899 Y100.867 E0.00596
G1 X70.240 Y100.710 F9000.000
G1 F1800.000
G1 X70.128 Y100.043 E0.00575
G1 X70.129 Y79.928 E0.17114
G1 X70.217 Y79.357 E0.00491
G1 X70.437 Y78.827 E0.00488
G1 X70.779 Y78.366 E0.00488
G1 X71.224 Y77.998 E0.00491
G1 X71.828 Y77.721 E0.00565
G1 X72.481 Y77.623 E0.00562
G1 X107.509 Y77.623 E0.29801
G1 X108.390 Y77.794 E0.00763
G1 X109.145 Y78.279 E0.00763
G1 X109.664 Y79.006 E0.00760
G1 X109.879 Y79.877 E0.00763
G1 X109.879 Y100.118 E0.17220
G1 X109.784 Y100.676 E0.00482
G1 X109.561 Y101.193 E0.00478
G1 X109.224 Y101.642 E0.00478
G1 X108.786 Y102.002 E0.00482
G1 X108.182 Y102.279 E0.00565
G1 X107.529 Y102.377 E0.00562
G1 X72.459 Y102.377 E0.29836
G1 X71.880 Y102.293 E0.00498
G1 X71.342 Y102.073 E0.00495
G1 X70.874 Y101.729 E0.00495
G1 X70.503 Y101.281 E0.00495
G1 X70.265 Y100.764 E0.00484
; printing object modelisation support bille avc plaque.obj id:0 copy 0
G1 E-2.24000 F4200.000
;WIPE_START
G1 F7200.000
G1 X70.128 Y100.043 E-0.40690
G1 X70.128 Y99.132 E-0.50510
;WIPE_END
G1 E-0.04800 F4200.000
G1 Z0.450 F9000.000
G1 X73.484 Y99.021
G1 Z0.250
G1 E3.20000 F2400.000
M204 S300
;TYPE:Perimeter
;WIDTH:0.4
G1 F1800.000
G1 X73.484 Y80.979 E0.14600
G1 X106.526 Y80.979 E0.26738
G1 X106.526 Y99.021 E0.14600
G1 X73.544 Y99.021 E0.26690
M204 S1250
G1 X73.094 Y99.411 F9000.000
M204 S300
G1 F1800.000
G1 X73.094 Y80.589 E0.15230
G1 X106.916 Y80.589 E0.27368
G1 X106.916 Y99.411 E0.15230
G1 X73.154 Y99.411 E0.27320
M204 S1250
G1 X72.705 Y99.800 F9000.000
M204 S300
;TYPE:External perimeter
G1 F1200.000
G1 X72.705 Y80.200 E0.15860
G1 X107.305 Y80.200 E0.27998
G1 X107.305 Y99.800 E0.15860
G1 X72.765 Y99.800 E0.27950
M204 S1250
G1 X72.843 Y99.424 F9000.000
G1 E-2.24000 F4200.000
;WIPE_START
G1 F7200.000
G1 X72.760 Y98.154 E-0.91200
;WIPE_END
G1 E-0.04800 F4200.000
G1 Z0.450 F9000.000
G1 X105.518 Y98.908
G1 Z0.250
G1 E3.20000 F2400.000
M204 S1000
;TYPE:Solid infill
;WIDTH:0.453514
G1 F1800.000
G1 X106.216 Y98.211 E0.00908
G1 X106.216 Y97.584 E0.00576
G1 X105.089 Y98.711 E0.01466
G1 X104.463 Y98.711 E0.00576
G1 X106.216 Y96.958 E0.02281
G1 X106.216 Y96.332 E0.00576
G1 X103.837 Y98.711 E0.03096
G1 X103.211 Y98.711 E0.00576
G1 X106.216 Y95.706 E0.03911
G1 X106.216 Y95.080 E0.00576
G1 X102.585 Y98.711 E0.04727
G1 X101.959 Y98.711 E0.00576
G1 X106.216 Y94.454 E0.05542
G1 X106.216 Y93.827 E0.00576
G1 X101.332 Y98.711 E0.06357
G1 X100.706 Y98.711 E0.00576
G1 X106.216 Y93.201 E0.07172
G1 X106.216 Y92.575 E0.00576
G1 X100.080 Y98.711 E0.07987
G1 X99.454 Y98.711 E0.00576
G1 X106.216 Y91.949 E0.08802
G1 X106.216 Y91.323 E0.00576
G1 X98.828 Y98.711 E0.09617
G1 X98.201 Y98.711 E0.00576
G1 X106.216 Y90.696 E0.10432
G1 X106.216 Y90.070 E0.00576
G1 X97.575 Y98.711 E0.11247
G1 X96.949 Y98.711 E0.00576
G1 X106.216 Y89.444 E0.12063
G1 X106.216 Y88.818 E0.00576
G1 X96.323 Y98.711 E0.12878
G1 X95.697 Y98.711 E0.00576
G1 X106.216 Y88.192 E0.13693
G1 X106.216 Y87.565 E0.00576
G1 X95.070 Y98.711 E0.14508
M73 P3 R81
G1 X94.444 Y98.711 E0.00576
G1 X106.216 Y86.939 E0.15323
G1 X106.216 Y86.313 E0.00576
G1 X93.818 Y98.711 E0.16138
G1 X93.192 Y98.711 E0.00576
G1 X106.216 Y85.687 E0.16953
G1 X106.216 Y85.061 E0.00576
G1 X92.566 Y98.711 E0.17768
G1 X91.939 Y98.711 E0.00576
G1 X106.216 Y84.434 E0.18583
G1 X106.216 Y83.808 E0.00576
G1 X91.313 Y98.711 E0.19399
G1 X90.687 Y98.711 E0.00576
G1 X106.216 Y83.182 E0.20214
G1 X106.216 Y82.556 E0.00576
G1 X90.061 Y98.711 E0.21029
G1 X89.435 Y98.711 E0.00576
G1 X106.216 Y81.930 E0.21844
G1 X106.216 Y81.304 E0.00576
G1 X88.809 Y98.711 E0.22659
G1 X88.182 Y98.711 E0.00576
G1 X105.604 Y81.289 E0.22678
G1 X104.978 Y81.289 E0.00576
G1 X87.556 Y98.711 E0.22678
G1 X86.930 Y98.711 E0.00576
G1 X104.351 Y81.289 E0.22678
G1 X103.725 Y81.289 E0.00576
G1 X86.304 Y98.711 E0.22678
G1 X85.678 Y98.711 E0.00576
G1 X103.099 Y81.289 E0.22678
G1 X102.473 Y81.289 E0.00576
G1 X85.051 Y98.711 E0.22678
G1 X84.425 Y98.711 E0.00576
G1 X101.847 Y81.289 E0.22678
G1 X101.221 Y81.289 E0.00576
G1 X83.799 Y98.711 E0.22678
G1 X83.173 Y98.711 E0.00576
G1 X100.594 Y81.289 E0.22678
G1 X99.968 Y81.289 E0.00576
G1 X82.547 Y98.711 E0.22678
G1 X81.920 Y98.711 E0.00576
G1 X99.342 Y81.289 E0.22678
G1 X98.716 Y81.289 E0.00576
G1 X81.294 Y98.711 E0.22678
G1 X80.668 Y98.711 E0.00576
G1 X98.090 Y81.289 E0.22678
G1 X97.463 Y81.289 E0.00576
G1 X80.042 Y98.711 E0.22678
G1 X79.416 Y98.711 E0.00576
G1 X96.837 Y81.289 E0.22678
G1 X96.211 Y81.289 E0.00576
G1 X78.789 Y98.711 E0.22678
M73 P3 R80
G1 X78.163 Y98.711 E0.00576
G1 X95.585 Y81.289 E0.22678
G1 X94.959 Y81.289 E0.00576
G1 X77.537 Y98.711 E0.22678
G1 X76.911 Y98.711 E0.00576
G1 X94.332 Y81.289 E0.22678
G1 X93.706 Y81.289 E0.00576
G1 X76.285 Y98.711 E0.22678
G1 X75.658 Y98.711 E0.00576
G1 X93.080 Y81.289 E0.22678
G1 X92.454 Y81.289 E0.00576
G1 X75.032 Y98.711 E0.22678
G1 X74.406 Y98.711 E0.00576
G1 X91.828 Y81.289 E0.22678
G1 X91.201 Y81.289 E0.00576
G1 X73.794 Y98.696 E0.22659
G1 X73.794 Y98.070 E0.00576
G1 X90.575 Y81.289 E0.21844
G1 X89.949 Y81.289 E0.00576
G1 X73.794 Y97.444 E0.21029
G1 X73.794 Y96.818 E0.00576
G1 X89.323 Y81.289 E0.20214
G1 X88.697 Y81.289 E0.00576
G1 X73.794 Y96.192 E0.19399
G1 X73.794 Y95.565 E0.00576
G1 X88.070 Y81.289 E0.18583
G1 X87.444 Y81.289 E0.00576
G1 X73.794 Y94.939 E0.17768
G1 X73.794 Y94.313 E0.00576
G1 X86.818 Y81.289 E0.16953
G1 X86.192 Y81.289 E0.00576
G1 X73.794 Y93.687 E0.16138
G1 X73.794 Y93.061 E0.00576
